svgs/upv_alumnado.svg

<svg xmlns="http://www.w3.org/2000/svg" viewBox="0 0 192 192"><path d="M135.009 175.239c-1.177-.534-3.799-2.832-8.06-7.065l-6.316-6.273 1.44-1.475 1.44-1.475 6.645 6.606c5.866 5.832 6.793 6.606 7.908 6.606.695 0 1.599-.18 2.01-.4 1.108-.593 2.029-2.614 1.732-3.798-.145-.577-3.013-3.797-6.717-7.542l-6.464-6.535 1.46-1.448 1.459-1.447 6.228 6.34c6.282 6.394 7.702 8.377 7.702 10.751 0 2.671-2.602 6.15-5.506 7.361-1.893.79-2.854.75-4.961-.206Zm-113.43-8.806c.004-2.536 1.02-8.222 1.995-11.168 6.438-19.448 26.468-33.979 53.164-38.567l1.748-.301.108-5.316.108-5.316-1.662-.845c-7.707-3.919-13.961-11.14-17.962-20.74-1.177-2.824-2.52-9.206-2.778-13.205-.225-3.47.392-11.85.871-11.85.087 0 2.037.942 4.334 2.094l4.177 2.095-.131 4.218c-.414 13.341 7.861 25.882 19.711 29.872l2.547.857.194 13.45.194 13.45h-3.108c-6.26 0-16.37 2.661-24.86 6.544-9.443 4.319-16.598 9.442-20.565 14.725-2.66 3.543-6.605 10.766-6.22 11.389.134.217 16.187.36 40.432.36h40.209l-.832 1.068c-.458.588-2.482 2.598-4.499 4.467l-3.667 3.399H63.333c-39.508 0-41.755-.036-41.754-.68Zm120.803-9.618-8.336-8.342 3.296-3.346c3.555-3.609 4.92-4.428 7.377-4.428 3.731 0 7.788 4.037 7.758 7.719-.014 1.594-1.301 3.983-3.053 5.664-.88.844-1.6 1.715-1.6 1.934 0 .218 1.313 1.719 2.918 3.333l2.918 2.936-1.471 1.436-1.471 1.437Zm4.584-4.963c1.153-1.175 1.635-1.994 1.635-2.78 0-1.995-2.907-4.877-4.92-4.877-.378 0-1.524.825-2.547 1.833l-1.862 1.833 2.81 2.828c1.545 1.556 2.908 2.828 3.029 2.828s.956-.749 1.855-1.665Zm16.359-5.646c-2.05-1.213-6.721-3.954-10.381-6.09l-6.653-3.884 1.493-1.499 1.494-1.498 8.038 5.325c4.422 2.929 8.125 5.239 8.23 5.134.203-.204-.935-2.055-5.664-9.21-1.623-2.457-3.335-5.092-3.804-5.856l-.852-1.388 1.487-1.452 1.487-1.452 6.11 10.558 6.111 10.559-1.472 1.507c-.81.829-1.568 1.495-1.685 1.479-.116-.016-1.889-1.021-3.939-2.233Zm-31.039-10.013c-9.099-5.871-24.748-11.032-33.449-11.032h-3.065V111.5c0-7.513.102-13.558.227-13.433.124.125 1.174-.099 2.332-.498 12.339-4.245 20.15-15.915 19.944-29.798l-.066-4.514 4.166-2.09c2.291-1.15 4.24-2.016 4.331-1.925.445.445.914 5.227.916 9.339.007 14.873-7.05 27.947-19.138 35.45l-3.195 1.983-.11 4.761c-.07 3.081.043 4.943.323 5.281.238.286 1.249.633 2.246.77 3.657.503 12.55 2.895 16.488 4.434 5.136 2.008 10.454 4.693 14.588 7.364l3.236 2.09-3.422 3.439c-1.882 1.891-3.601 3.434-3.819 3.428-.218-.005-1.358-.63-2.533-1.388ZM40.612 58.982V40.194l25.541-12.097L91.693 16l25.159 11.922c13.838 6.557 25.025 12.042 24.861 12.19-.164.148-11.454 5.539-25.089 11.981L91.833 63.807l-20.998-9.916c-11.549-5.454-21.151-9.916-21.338-9.916-.256 0-.623 31.993-.385 33.504.025.16-1.877.291-4.227.291h-4.273Zm66.91-11.536c8.405-3.978 15.053-7.348 15.053-7.629 0-.277-.161-.503-.357-.503-.197 0-2.426-.982-4.953-2.181a5076.905 5076.905 0 0 0-7.703-3.647c-1.709-.807-5.031-2.38-7.381-3.495-9.131-4.334-10.112-4.781-10.488-4.781-.376 0-1.37.453-10.488 4.781a2513.83 2513.83 0 0 1-7.103 3.359c-1.556.733-3.025 1.211-3.264 1.063-.24-.149-.328-.096-.196.118.303.49-6.605 3.736-7.187 3.376-.253-.156-.324-.092-.173.154.154.248-.299.624-1.105.915-.751.272-1.366.687-1.366.924s1.268 1.01 2.817 1.719c5.382 2.462 12.183 5.68 19.907 9.42 4.273 2.069 8.032 3.71 8.352 3.647.321-.063 7.357-3.321 15.635-7.24Z"/></svg>

<svg
    xmlns="http://www.w3.org/2000/svg"
    viewBox="0 0 192 192"
    id="vector">
    <path
        id="path"
        d="M 135.009 175.239 C 133.832 174.705 131.21 172.407 126.949 168.174 L 120.633 161.901 L 122.073 160.426 L 123.513 158.951 L 130.158 165.557 C 136.024 171.389 136.951 172.163 138.066 172.163 C 138.761 172.163 139.665 171.983 140.076 171.763 C 141.184 171.17 142.105 169.149 141.808 167.965 C 141.663 167.388 138.795 164.168 135.091 160.423 L 128.627 153.888 L 130.087 152.44 L 131.546 150.993 L 137.774 157.333 C 144.056 163.727 145.476 165.71 145.476 168.084 C 145.476 170.755 142.874 174.234 139.97 175.445 C 138.077 176.235 137.116 176.195 135.009 175.239 Z M 21.579 166.433 C 21.583 163.897 22.599 158.211 23.574 155.265 C 30.012 135.817 50.042 121.286 76.738 116.698 L 78.486 116.397 L 78.594 111.081 L 78.702 105.765 L 77.04 104.92 C 69.333 101.001 63.079 93.78 59.078 84.18 C 57.901 81.356 56.558 74.974 56.3 70.975 C 56.075 67.505 56.692 59.125 57.171 59.125 C 57.258 59.125 59.208 60.067 61.505 61.219 L 65.682 63.314 L 65.551 67.532 C 65.137 80.873 73.412 93.414 85.262 97.404 L 87.809 98.261 L 88.003 111.711 L 88.197 125.161 L 85.089 125.161 C 78.829 125.161 68.719 127.822 60.229 131.705 C 50.786 136.024 43.631 141.147 39.664 146.43 C 37.004 149.973 33.059 157.196 33.444 157.819 C 33.578 158.036 49.631 158.179 73.876 158.179 L 114.085 158.179 L 113.253 159.247 C 112.795 159.835 110.771 161.845 108.754 163.714 L 105.087 167.113 L 63.333 167.113 C 23.825 167.113 21.578 167.077 21.579 166.433 Z M 142.382 156.815 L 134.046 148.473 L 137.342 145.127 C 140.897 141.518 142.262 140.699 144.719 140.699 C 148.45 140.699 152.507 144.736 152.477 148.418 C 152.463 150.012 151.176 152.401 149.424 154.082 C 148.544 154.926 147.824 155.797 147.824 156.016 C 147.824 156.234 149.137 157.735 150.742 159.349 L 153.66 162.285 L 152.189 163.721 L 150.718 165.158 Z M 146.966 151.852 C 148.119 150.677 148.601 149.858 148.601 149.072 C 148.601 147.077 145.694 144.195 143.681 144.195 C 143.303 144.195 142.157 145.02 141.134 146.028 L 139.272 147.861 L 142.082 150.689 C 143.627 152.245 144.99 153.517 145.111 153.517 C 145.232 153.517 146.067 152.768 146.966 151.852 Z M 163.325 146.206 C 161.275 144.993 156.604 142.252 152.944 140.116 L 146.291 136.232 L 147.784 134.733 L 149.278 133.235 L 157.316 138.56 C 161.738 141.489 165.441 143.799 165.546 143.694 C 165.749 143.49 164.611 141.639 159.882 134.484 C 158.259 132.027 156.547 129.392 156.078 128.628 L 155.226 127.24 L 156.713 125.788 L 158.2 124.336 L 164.31 134.894 L 170.421 145.453 L 168.949 146.96 C 168.139 147.789 167.381 148.455 167.264 148.439 C 167.148 148.423 165.375 147.418 163.325 146.206 Z M 132.286 136.193 C 123.187 130.322 107.538 125.161 98.837 125.161 L 95.772 125.161 L 95.772 111.5 C 95.772 103.987 95.874 97.942 95.999 98.067 C 96.123 98.192 97.173 97.968 98.331 97.569 C 110.67 93.324 118.481 81.654 118.275 67.771 L 118.209 63.257 L 122.375 61.167 C 124.666 60.017 126.615 59.151 126.706 59.242 C 127.151 59.687 127.62 64.469 127.622 68.581 C 127.629 83.454 120.572 96.528 108.484 104.031 L 105.289 106.014 L 105.179 110.775 C 105.109 113.856 105.222 115.718 105.502 116.056 C 105.74 116.342 106.751 116.689 107.748 116.826 C 111.405 117.329 120.298 119.721 124.236 121.26 C 129.372 123.268 134.69 125.953 138.824 128.624 L 142.06 130.714 L 138.638 134.153 C 136.756 136.044 135.037 137.587 134.819 137.581 C 134.601 137.576 133.461 136.951 132.286 136.193 Z M 40.612 58.982 L 40.612 40.194 L 66.153 28.097 L 91.693 16 L 116.852 27.922 C 130.69 34.479 141.877 39.964 141.713 40.112 C 141.549 40.26 130.259 45.651 116.624 52.093 L 91.833 63.807 L 70.835 53.891 C 59.286 48.437 49.684 43.975 49.497 43.975 C 49.241 43.975 48.874 75.968 49.112 77.479 C 49.137 77.639 47.235 77.77 44.885 77.77 L 40.612 77.77 Z M 107.522 47.446 C 115.927 43.468 122.575 40.098 122.575 39.817 C 122.575 39.54 122.414 39.314 122.218 39.314 C 122.021 39.314 119.792 38.332 117.265 37.133 C 114.737 35.934 111.271 34.292 109.562 33.486 C 107.853 32.679 104.531 31.106 102.181 29.991 C 93.05 25.657 92.069 25.21 91.693 25.21 C 91.317 25.21 90.323 25.663 81.205 29.991 C 78.855 31.107 75.659 32.618 74.102 33.35 C 72.546 34.083 71.077 34.561 70.838 34.413 C 70.598 34.264 70.51 34.317 70.642 34.531 C 70.945 35.021 64.037 38.267 63.455 37.907 C 63.202 37.751 63.131 37.815 63.282 38.061 C 63.436 38.309 62.983 38.685 62.177 38.976 C 61.426 39.248 60.811 39.663 60.811 39.9 C 60.811 40.137 62.079 40.91 63.628 41.619 C 69.01 44.081 75.811 47.299 83.535 51.039 C 87.808 53.108 91.567 54.749 91.887 54.686 C 92.208 54.623 99.244 51.365 107.522 47.446 Z"
        fill="#000000"
        stroke-width="12"/>
</svg>
